fonts/times-new-roman/bubble/glyphs/21_shin.svg

<?xml version="1.0" encoding="utf-8"?>
<svg version="1.1" viewBox="-10 0 1260 2048" xmlns="http://www.w3.org/2000/svg">
  <path fill="none" stroke="black" stroke-width="40" d="M 821 1638 L 262 1638 C 242.667 1535.333 221.667 1443.333 199 1362 C 167 1245.333 151 1150.333 151 1077 C 151 977.667 161.033 886.779 177.781 806.087 C 94.448 781.42 67 738 67 672 C 67 609.333 83.667 553 117 503 L 144 503 C 150.667 527.667 161 545 175 555 C 189 565 218.333 574.667 263 584 C 329.667 598 363 649.667 363 739 C 363 761.667 361 779.667 357 793 C 314.333 807 275 814 239 814 C 223.667 882.667 216 959.333 216 1044 C 216 1152.667 254.667 1282.667 332 1434 L 363 1433 C 453.667 1266.333 519.57 1050.051 588.903 797.384 C 506.236 766.717 479 724.667 479 658 C 479 600.667 496 549 530 503 L 557 503 C 565 540.333 583.667 562.667 613 570 L 676 584 C 743.333 599.333 777 645.333 777 722 C 777 749.333 774 773 768 793 C 738 802.333 700.667 807 656 807 C 606 1035.667 533.667 1244.667 439 1434 L 757 1434 C 787.667 1332.667 872.333 1184.667 1011 990 C 1046.333 941.333 1064 900 1064 866 C 1064 831.333 1046 808 1010 796 L 997 792 C 930.333 769.333 897 730 897 674 C 897 610.667 916.333 553.667 955 503 L 981 503 C 985.667 535 1002.667 556.333 1032 567 L 1088 586 C 1151.333 608 1183 653.667 1183 723 C 1183 783 1161.262 866.541 1099.262 962.874 C 1037.262 1059.207 973.333 1159.5 926 1274.5 C 878.667 1389.5 843.667 1510.667 821 1638 Z"/>
</svg>

<?xml version="1.0" standalone="no"?>
<!DOCTYPE svg PUBLIC "-//W3C//DTD SVG 1.1//EN" "http://www.w3.org/Graphics/SVG/1.1/DTD/svg11.dtd" >
<svg xmlns="http://www.w3.org/2000/svg" xmlns:xlink="http://www.w3.org/1999/xlink" version="1.1" viewBox="-10 0 1260 2048">
   <path fill="none" stroke="black" stroke-width="40"
d="M821 1638h-559q-29 -154 -63 -276q-48 -175 -48 -285q0 -149 41 -269q-125 -37 -125 -136q0 -94 50 -169h27q10 37 31 52t88 29q100 21 100 155q0 34 -6 54q-64 21 -118 21q-23 103 -23 230q0 163 116 390l31 -1q136 -250 240 -629q-124 -46 -124 -146q0 -86 51 -155h27
q12 56 56 67l63 14q101 23 101 138q0 41 -9 71q-45 14 -112 14q-75 343 -217 627h318q46 -152 254 -444q53 -73 53 -124q0 -52 -54 -70l-13 -4q-100 -34 -100 -118q0 -95 58 -171h26q7 48 51 64l56 19q95 33 95 137q0 90 -93 234.5t-164 317t-105 363.5z" />
</svg>
